{
  "compressionlevel": -1,
  "height": 12,
  "infinite": false,
  "layers": [
    {
      "data": [
        0, 0, 0, 0, 0, 0, 0, 0, 0, 0, 0, 0,
        0, 0, 0, 0, 0, 0, 0, 0, 0, 0, 0, 0,
        0, 0, 2, 0, 0, 0, 0, 0, 0, 3, 0, 0,
        0, 0, 0, 0, 0, 0, 0, 0, 0, 0, 0, 0,
        0, 0, 0, 0, 0, 0, 0, 0, 0, 0, 0, 0,
        0, 0, 0, 0, 0, 4, 4, 0, 0, 0, 0, 0,
        0, 0, 0, 0, 0, 4, 4, 0, 0, 0, 0, 0,
        0, 0, 0, 0, 0, 0, 0, 0, 0, 0, 0, 0,
        0, 0, 0, 0, 0, 0, 0, 0, 0, 0, 0, 0,
        0, 0, 3, 0, 0, 0, 0, 0, 0, 2, 0, 0,
        0, 0, 0, 0, 0, 0, 0, 0, 0, 0, 0, 0,
        0, 0, 0, 0, 0, 0, 0, 0, 0, 0, 0, 0
      ],
      "height": 12,
      "id": 1,
      "name": "tiles",
      "opacity": 1,
      "type": "tilelayer",
      "visible": true,
      "width": 12,
      "x": 0,
      "y": 0
    },
    {
      "draworder": "topdown",
      "id": 2,
      "name": "objects",
      "objects": [
        { "id": 1, "name": "", "type": "plate", "x": 48, "y": 48, "width": 16, "height": 16, "rotation": 0, "visible": true },
        {
          "id": 2,
          "name": "rose",
          "type": "item",
          "x": 128,
          "y": 112,
          "width": 16,
          "height": 16,
          "rotation": 0,
          "visible": true,
          "properties": [{ "name": "kind", "type": "string", "value": "rose" }]
        },
        {
          "id": 3,
          "name": "pot",
          "type": "target",
          "x": 32,
          "y": 128,
          "width": 16,
          "height": 16,
          "rotation": 0,
          "visible": true,
          "properties": [{ "name": "accepts", "type": "string", "value": "rose" }]
        }
      ],
      "opacity": 1,
      "type": "objectgroup",
      "visible": true,
      "x": 0,
      "y": 0
    }
  ],
  "nextlayerid": 3,
  "nextobjectid": 4,
  "orientation": "orthogonal",
  "renderorder": "right-down",
  "tiledversion": "1.11.0",
  "tileheight": 16,
  "tilesets": [
    {
      "columns": 4,
      "firstgid": 1,
      "image": "../client/public/assets/tiles/template.png",
      "imageheight": 16,
      "imagewidth": 64,
      "margin": 0,
      "name": "template",
      "spacing": 0,
      "tilecount": 4,
      "tileheight": 16,
      "tilewidth": 16,
      "tiles": [
        { "id": 0, "properties": [{ "name": "kind", "type": "string", "value": "floor" }] },
        { "id": 1, "properties": [{ "name": "kind", "type": "string", "value": "wall" }] },
        { "id": 2, "properties": [{ "name": "kind", "type": "string", "value": "tree" }] },
        { "id": 3, "properties": [{ "name": "kind", "type": "string", "value": "water" }] }
      ]
    }
  ],
  "tilewidth": 16,
  "type": "map",
  "version": "1.10",
  "width": 12
}
